# (key-sig! '(a flat major))
(tempo! 130)


midi-percussion:
  V1: # Kick
  (f)
  o2 [c8 r r r c c r r | c r r c r c r r |]*4

  V2: # Snare
  (f)
  o2 [r4 e r e | r e r e]*4

  V3: # Hit-hat
  (p)
  [o3 c+8 < f+*7 | f+*8]*4

# midi-synth-pad-new-age:
#   (quant 95)
#   [
#   o4
#   c16 '1,4
#   d16 '2,5
#   e16 '3,6
#   f16 '7-8
#   g16 '9

#   o3 c16 c c
# ]*9

# o4 a1
#   [c16 d e f]*4 
#   [o3 c16 d e f]*4
#   o2 cocoon *2